svg/u1f3ce.svg

<svg viewBox="0 0 128 128" xmlns="http://www.w3.org/2000/svg">
  <path d="M81.67,75.39v-2.32c0,0-2.86-0.19-4.09-0.66c-0.66-0.25-1.47-1.62-1.27-2.9 c0.19-1.27,1.04-1.93,2.55-1.89c1.54,0.04,3.36,0.17,5.02,0.46c2.82,0.5,4.47,1.21,4.9,1.39c0.66,0.27,1.12,2.66-0.08,3.24 c-0.7,0.34-2.51,0.42-2.51,0.42l0.04,2.32L81.67,75.39z" fill="#B50D22"/>
  <path d="M5.31,114.43c0,0-0.75-3.51,1.71-5.78c2.85-2.63,6.2-3.65,10.08-5.16c3.39-1.32,8.51-2.87,8.51-2.87 l10.46-6.69c0,0,4.67-1.11,12.96-0.95c7.19,0.14,19.09,1.17,19.09,1.17s2.53-2.69,6.36-3.15c3.83-0.46,5.53-0.11,5.53-0.11 l0.35-16.25c0,0,6.49,0,8.57,0.2c3.13,0.31,7.03,3.55,8.13,4.67c0.29,0.3,6.15,6.61,6.15,6.61l3.71,1.74c0,0,5.21-20.47,5.95-20.71 c0.01,0,3.43-0.28,6.51-0.38c4.06-0.13,6.92,0,7.26,0.2c0.25,0.15-2.69,14.11-2.69,14.11l-27.7,36.24c0,0-39.32-1.04-39.56-1.39 c-0.23-0.35-11.37-5.68-11.37-5.68s-27.38,3.13-27.84,3.36C17.02,113.85,5.31,114.43,5.31,114.43z" fill="#FF2A23"/>
  <path d="M104.62,101.37l16.61-3.4l2.76-16.92c0,0-7.43-0.07-13.36,6.84 C104.97,94.5,104.62,101.37,104.62,101.37z" fill="#B50D22"/>
  <path d="M54.54,91.99c-0.02,1.53,2.9,3.65,5.97,3.74c3.52,0.1,4.56-0.57,4.6-1.8s-0.04-3.77-0.04-3.77 l-8.4-1.75C56.66,88.41,54.57,89.83,54.54,91.99z" fill="#B50D22"/>
  <path d="M56.43,88.61c0,0,1.98-1.85,4.36-2.34c2.15-0.44,4.24-0.36,4.24,0.34c0,1.19,0.04,3.54,0.04,3.54 s-1.32,1.18-4.89,0.84C57.92,90.78,56.74,89.09,56.43,88.61z" fill="#FF2A23"/>
  <path d="M50.2,110.46c0,0,6.52,0.58,11.47-1.44c4.06-1.66,5.71-3.91,8.32-5.26c1.31-0.68,3.96-0.58,3.96-0.58 l1.17,11.79l-22.36,1.57l-2.34-3.51L50.2,110.46z" fill="#CF1A35"/>
  <path d="M112.87,67.16l-3.67,22.61l-14.52-3.39c0,0,1.49-1.76,1.98-3.3c0.52-1.65,0.41-3.57,0.41-3.57 l7.99,6.4c0,0,2.64-14.77,2.88-15.67c0.24-0.9,0.98-1.86,2.36-2.6C111.16,67.19,112.87,67.16,112.87,67.16z" fill="#636866"/>
  <path d="M112.7,97.86l8.52,0.12c0,0-0.43,6.72-1.06,8.47c-1.09,3.02-3.4,2.78-3.4,2.78 S112.66,97.76,112.7,97.86z" fill="#636866"/>
  <path d="M2.15,113.29c-0.31,0.2-0.44,6.98-0.22,7.13s7.97,0.15,7.97,0.15s0.2-7.28-0.76-7.28 S2.37,113.14,2.15,113.29z" fill="#636866"/>
  <path d="M18,113.44c0,0,0.29,7.54-0.18,7.76c-0.48,0.22-8.45,0.22-8.75,0.04c-0.29-0.18-0.07-7.87-0.04-7.98 C9.06,113.14,18.18,113.18,18,113.44z" fill="#B50D22"/>
  <path d="M46.42,114.17h4.16c0,0-2.68,4.26-2.96,4.68c-0.28,0.42-0.18,1.16,1.2,1.2c1.37,0.04,44.47,0,44.47,0 l-4.72-6.22H51.42c0,0-0.24-2.08-0.93-3.77s-2.27-2.95-2.27-2.95L46.42,114.17z" fill="#636866"/>
  <path d="M71.99,102.83c-0.14,0.19-0.27,10.76-0.06,10.97s4.96,0.18,5.11,0.06c0.15-0.12,0.18-10.7,0.09-10.88 S72.14,102.62,71.99,102.83z" fill="#8C1D0B"/>
  <path d="M48.32,108.34c0,8.57-6.99,15.52-15.6,15.52s-15.57-5.76-15.6-15.52 c-0.03-8.57,6.63-15.46,15.6-15.52C41.65,92.76,48.32,99.77,48.32,108.34z" fill="#4C4038"/>
  <path d="M32.72,95.23c-7.33,0-13.28,5.89-13.28,13.15s5.95,13.15,13.28,13.15c7.33,0,13.28-5.89,13.28-13.15 S40.06,95.23,32.72,95.23z M32.63,119.64c-6.14,0-11.12-5.03-11.12-11.23c0-6.2,4.98-11.23,11.12-11.23 c6.14,0,11.12,5.03,11.12,11.23C43.75,114.62,38.77,119.64,32.63,119.64z" fill="#F8A128"/>
  <path d="M32.54,100.08c-4.56,0-8.26,3.62-8.26,8.09s3.7,8.09,8.26,8.09c4.56,0,8.26-3.62,8.26-8.09 S37.1,100.08,32.54,100.08z M32.51,112.73c-2.57,0-4.66-2.05-4.66-4.57s2.09-4.57,4.66-4.57s4.66,2.05,4.66,4.57 S35.08,112.73,32.51,112.73z" fill="#858583"/>
  <path d="M117.8,108.38c0,8.57-6.99,15.52-15.6,15.52s-15.57-5.76-15.6-15.52 c-0.03-8.57,6.63-15.46,15.6-15.52C111.12,92.8,117.8,99.81,117.8,108.38z" fill="#4C4038"/>
  <path d="M102.2,95.27c-7.33,0-13.28,5.89-13.28,13.15s5.95,13.15,13.28,13.15c7.33,0,13.28-5.89,13.28-13.15 S109.53,95.27,102.2,95.27z M102.11,119.68c-6.14,0-11.12-5.03-11.12-11.23c0-6.2,4.98-11.23,11.12-11.23 c6.14,0,11.12,5.03,11.12,11.23C113.22,114.66,108.25,119.68,102.11,119.68z" fill="#F8A128"/>
  <path d="M102.02,100.12c-4.56,0-8.26,3.62-8.26,8.09s3.7,8.09,8.26,8.09c4.56,0,8.26-3.62,8.26-8.09 S106.58,100.12,102.02,100.12z M101.99,112.77c-2.57,0-4.66-2.05-4.66-4.57s2.09-4.57,4.66-4.57s4.66,2.05,4.66,4.57 S104.56,112.77,101.99,112.77z" fill="#858583"/>
</svg>

<svg viewBox="0 0 128 128" xmlns="http://www.w3.org/2000/svg">
  <defs/>
  <path d="M81.67,75.39 L81.67,73.07 C81.67,73.07 78.81,72.88 77.58,72.41 C76.92,72.16 76.11,70.79 76.31,69.51 C76.5,68.24 77.35,67.58 78.86,67.62 C80.4,67.66 82.22,67.79 83.88,68.08 C86.7,68.58 88.35,69.29 88.78,69.47 C89.44,69.74 89.9,72.13 88.7,72.71 C88,73.05 86.19,73.13 86.19,73.13 L86.23,75.45 L81.67,75.39 Z" fill="#B50D22"/>
  <path d="M5.31,114.43 C5.31,114.43 4.56,110.92 7.02,108.65 C9.87,106.02 13.22,105 17.1,103.49 C20.49,102.17 25.61,100.62 25.61,100.62 L36.07,93.93 C36.07,93.93 40.74,92.82 49.03,92.98 C56.22,93.12 68.12,94.15 68.12,94.15 C68.12,94.15 70.65,91.46 74.48,91 C78.31,90.54 80.01,90.89 80.01,90.89 L80.36,74.64 C80.36,74.64 86.85,74.64 88.93,74.84 C92.06,75.15 95.96,78.39 97.06,79.51 C97.35,79.81 103.21,86.12 103.21,86.12 L106.92,87.86 C106.92,87.86 112.13,67.39 112.87,67.15 C112.88,67.15 116.3,66.87 119.38,66.77 C123.44,66.64 126.3,66.77 126.64,66.97 C126.89,67.12 123.95,81.08 123.95,81.08 L96.25,117.32 C96.25,117.32 56.93,116.28 56.69,115.93 C56.46,115.58 45.32,110.25 45.32,110.25 C45.32,110.25 17.94,113.38 17.48,113.61 C17.02,113.85 5.31,114.43 5.31,114.43 Z" fill="#FF2A23"/>
  <path d="M104.62,101.37 L121.23,97.97 L123.99,81.05 C123.99,81.05 116.56,80.98 110.63,87.89 C104.97,94.5 104.62,101.37 104.62,101.37 Z" fill="#B50D22"/>
  <path d="M54.54,91.99 C54.52,93.52 57.44,95.64 60.51,95.73 C64.03,95.83 65.07,95.16 65.11,93.93 C65.15,92.7 65.07,90.16 65.07,90.16 L56.67,88.41 C56.66,88.41 54.57,89.83 54.54,91.99 Z" fill="#B50D22"/>
  <path d="M56.43,88.61 C56.43,88.61 58.41,86.76 60.79,86.27 C62.94,85.83 65.03,85.91 65.03,86.61 C65.03,87.8 65.07,90.15 65.07,90.15 C65.07,90.15 63.75,91.33 60.18,90.99 C57.92,90.78 56.74,89.09 56.43,88.61 Z" fill="#FF2A23"/>
  <path d="M50.2,110.46 C50.2,110.46 56.72,111.04 61.67,109.02 C65.73,107.36 67.38,105.11 69.99,103.76 C71.3,103.08 73.95,103.18 73.95,103.18 L75.12,114.97 L52.76,116.54 L50.42,113.03 L50.2,110.46 Z" fill="#CF1A35"/>
  <path d="M112.87,67.16 L109.2,89.77 L94.68,86.38 C94.68,86.38 96.17,84.62 96.66,83.08 C97.18,81.43 97.07,79.51 97.07,79.51 L105.06,85.91 C105.06,85.91 107.7,71.14 107.94,70.24 C108.18,69.34 108.92,68.38 110.3,67.64 C111.16,67.19 112.87,67.16 112.87,67.16 Z" fill="#636866"/>
  <path d="M112.7,97.86 L121.22,97.98 C121.22,97.98 120.79,104.7 120.16,106.45 C119.07,109.47 116.76,109.23 116.76,109.23 C116.76,109.23 112.66,97.76 112.7,97.86 Z" fill="#636866"/>
  <path d="M2.15,113.29 C1.84,113.49 1.71,120.27 1.93,120.42 C2.15,120.57 9.9,120.57 9.9,120.57 C9.9,120.57 10.1,113.29 9.14,113.29 C8.18,113.29 2.37,113.14 2.15,113.29 Z" fill="#636866"/>
  <path d="M18,113.44 C18,113.44 18.29,120.98 17.82,121.2 C17.34,121.42 9.37,121.42 9.07,121.24 C8.78,121.06 9,113.37 9.03,113.26 C9.06,113.14 18.18,113.18 18,113.44 Z" fill="#B50D22"/>
  <path d="M46.42,114.17 L50.58,114.17 C50.58,114.17 47.9,118.43 47.62,118.85 C47.34,119.27 47.44,120.01 48.82,120.05 C50.19,120.09 93.29,120.05 93.29,120.05 L88.57,113.83 L51.42,113.83 C51.42,113.83 51.18,111.75 50.49,110.06 C49.8,108.37 48.22,107.11 48.22,107.11 L46.42,114.17 Z" fill="#636866"/>
  <path d="M71.99,102.83 C71.85,103.02 71.72,113.59 71.93,113.8 C72.14,114.01 76.89,113.98 77.04,113.86 C77.19,113.74 77.22,103.16 77.13,102.98 C77.04,102.8 72.14,102.62 71.99,102.83 Z" fill="#8C1D0B"/>
  <path d="M48.32,108.34 C48.32,116.91 41.33,123.86 32.72,123.86 C24.11,123.86 17.15,118.1 17.12,108.34 C17.09,99.77 23.75,92.88 32.72,92.82 C41.65,92.76 48.32,99.77 48.32,108.34 Z" fill="#4C4038"/>
  <path d="M32.72,95.23 C25.39,95.23 19.44,101.12 19.44,108.38 C19.44,115.64 25.39,121.53 32.72,121.53 C40.05,121.53 46,115.64 46,108.38 C46,101.12 40.06,95.23 32.72,95.23 Z M32.63,119.64 C26.49,119.64 21.51,114.61 21.51,108.41 C21.51,102.21 26.49,97.18 32.63,97.18 C38.77,97.18 43.75,102.21 43.75,108.41 C43.75,114.62 38.77,119.64 32.63,119.64 Z" fill="#F8A128"/>
  <path d="M32.54,100.08 C27.98,100.08 24.28,103.7 24.28,108.17 C24.28,112.64 27.98,116.26 32.54,116.26 C37.1,116.26 40.8,112.64 40.8,108.17 C40.8,103.7 37.1,100.08 32.54,100.08 Z M32.51,112.73 C29.94,112.73 27.85,110.68 27.85,108.16 C27.85,105.64 29.94,103.59 32.51,103.59 C35.08,103.59 37.17,105.64 37.17,108.16 C37.17,110.68 35.08,112.73 32.51,112.73 Z" fill="#858583"/>
  <path d="M117.8,108.38 C117.8,116.95 110.81,123.9 102.2,123.9 C93.59,123.9 86.63,118.14 86.6,108.38 C86.57,99.81 93.23,92.92 102.2,92.86 C111.12,92.8 117.8,99.81 117.8,108.38 Z" fill="#4C4038"/>
  <path d="M102.2,95.27 C94.87,95.27 88.92,101.16 88.92,108.42 C88.92,115.68 94.87,121.57 102.2,121.57 C109.53,121.57 115.48,115.68 115.48,108.42 C115.48,101.16 109.53,95.27 102.2,95.27 Z M102.11,119.68 C95.97,119.68 90.99,114.65 90.99,108.45 C90.99,102.25 95.97,97.22 102.11,97.22 C108.25,97.22 113.23,102.25 113.23,108.45 C113.22,114.66 108.25,119.68 102.11,119.68 Z" fill="#F8A128"/>
  <path d="M102.02,100.12 C97.46,100.12 93.76,103.74 93.76,108.21 C93.76,112.68 97.46,116.3 102.02,116.3 C106.58,116.3 110.28,112.68 110.28,108.21 C110.28,103.74 106.58,100.12 102.02,100.12 Z M101.99,112.77 C99.42,112.77 97.33,110.72 97.33,108.2 C97.33,105.68 99.42,103.63 101.99,103.63 C104.56,103.63 106.65,105.68 106.65,108.2 C106.65,110.72 104.56,112.77 101.99,112.77 Z" fill="#858583"/>
</svg>
